X:72
T:Drummond Lasses* (reel), The 
B:CRE2.167 (gan ainm)
F:file ID: cre.2/072drum_L
L:1/8
M:C
R:reel
Q:180
K:G
D|G2BG dGBG|G2BG EAAB|G2BG dgge|dBAG EGGD|
G2BG dGBG|GABG EAAB|G2BG dgge|dBAG EGG2||
gfed Bdd2|gfed eaaf|gfed B2ge|dBAG EGG2|
gfed Bdd2|gfed eaa2|bagf gbag|edBG EGG2||

%%%

